assets/icon/bedroom.svg

<?xml version="1.0" encoding="UTF-8"?>
<svg width="81px" height="54px" viewBox="0 0 81 54" version="1.1" xmlns="http://www.w3.org/2000/svg" xmlns:xlink="http://www.w3.org/1999/xlink">
    <!-- Generator: Sketch 44 (41411) - http://www.bohemiancoding.com/sketch -->
    <title>Bedroom</title>
    <desc>Created with Sketch.</desc>
    <defs></defs>
    <g id="Inspection" stroke="none" stroke-width="1" fill="none" fill-rule="evenodd">
        <g id="NewInspectionRoomSelection" transform="translate(-897.000000, -70.000000)">
            <g id="Bedroom" transform="translate(897.000000, 24.000000)">
                <polygon id="Path-9" fill="#D5D5E6" points="9.53515625 70.8349609 9.87695312 54.3535156 17.2236328 47.6074219 63.6601562 47.8232422 71.609375 54.6884766 71.9277344 71.3125 66.0732422 71.7666016 64.9541016 64.6826172 47.1572266 63.0029297 44.2822266 65.6699219 43.5419922 71.8115234 37.3808594 72.0625 37.4736328 66.4003906 33.4726562 63.0390625 19.2265625 63.1337891 15.671875 66.5458984 15.4980469 71.2783203"></polygon>
                <polygon id="Path-10" fill="#D5D5E6" points="9.71972656 92.1503906 9.55664062 96.8193359 12.0761719 98.6025391 14.9794922 95.5771484 14.8886719 90.8027344"></polygon>
                <polygon id="Path-10-Copy" fill="#D5D5E6" points="66.7197266 92.1503906 66.5566406 96.8193359 69.0761719 98.6025391 71.9794922 95.5771484 71.8886719 90.8027344"></polygon>
                <path d="M0,87.20701 C0.003906,90.24221 2.4609,92.69921 5.5,92.70701 L7.5,92.70701 L7.5,95.89841 L7.5,95.8945 C7.5,98.164 9.3359,100 11.6016,100 C13.8711,100 15.7071,98.1641 15.7071,95.8945 L15.7071,92.707 L64.9571,92.707 L64.9571,95.8984 L64.9571,95.8945 C64.9571,98.164 66.7969,100 69.0626,100 C71.3321,100 73.1681,98.1641 73.1681,95.8945 L73.1681,92.707 L75.1681,92.707 C78.2033,92.69918 80.6642,90.2422 80.6681,87.207 L80.6681,75.863 C80.66419,72.8278 78.2033,70.3708 75.1681,70.363 L73.1681,70.363 L73.1681,57.84299 C73.16419,51.49529 68.0158,46.351 61.6681,46.34299 L19.0001,46.34299 C12.6485,46.35081 7.5041,51.49529 7.5001,57.84299 L7.5001,70.363 L5.5001,70.363 C2.461,70.37081 0.004001,72.8278 0.000101,75.863 L0,87.20701 Z M12.711,95.89841 L12.70709,95.8945 C12.70709,96.50388 12.2149,97 11.60159,97 C10.99221,97 10.49999,96.50391 10.49999,95.8945 L10.49999,92.707 L12.71089,92.707 L12.711,95.89841 Z M70.172,95.89841 L70.16809,95.8945 C70.16809,96.50388 69.672,97 69.06259,97 C68.45318,97 67.95709,96.50391 67.95709,95.8945 L67.95709,92.707 L70.16799,92.707 L70.172,95.89841 Z M10.5,57.89841 L10.5,57.8945 C10.5039,53.2031 14.3047,49.4023 19,49.3945 L61.656,49.3945 C66.3513,49.40231 70.1521,53.2031 70.156,57.8945 L70.156,70.3635 L66.9998,70.3635 L66.9998,68.0041 C66.99198,64.4182 64.0857,61.5119 60.4998,61.5041 L48.2698,61.5041 C44.68,61.51191 41.7737,64.4182 41.7698,68.0041 L41.7698,70.3635 L38.7698,70.3635 L38.7698,68.0041 C38.76198,64.4182 35.8557,61.5119 32.2698,61.5041 L20.0078,61.5041 C16.4219,61.51191 13.5117,64.4182 13.5078,68.0041 L13.5078,70.3635 L10.5078,70.3635 L10.5,57.89841 Z M64,68.00341 L64,70.36281 L44.77,70.36281 L44.77,68.00341 C44.77,66.06981 46.3364,64.50341 48.27,64.50341 L60.5,64.50341 C62.4297,64.50341 64,66.06981 64,68.00341 Z M35.75,68.00341 L35.75,70.36281 L16.508,70.36281 L16.508,68.00341 C16.508,66.06981 18.0744,64.50341 20.008,64.50341 L32.25,64.50341 C34.1797,64.50341 35.75,66.06981 35.75,68.00341 Z M3,75.86281 C3,74.48391 4.1172,73.36281 5.5,73.36281 L75.156,73.36281 C75.82006,73.36281 76.4568,73.62843 76.9255,74.09719 C77.3942,74.56595 77.65597,75.20269 77.65597,75.86279 L77.65597,87.20679 C77.65597,87.86695 77.39425,88.50369 76.9255,88.97239 C76.45675,89.44109 75.82,89.70677 75.156,89.70677 L5.5,89.70677 C4.1172,89.70677 3,88.58567 3,87.20677 L3,75.86281 Z" id="Page-1" fill="#AAAAAA"></path>
            </g>
        </g>
    </g>
</svg>

<?xml version="1.0" encoding="utf-8"?>
<!-- Generator: Adobe Illustrator 16.0.4, SVG Export Plug-In . SVG Version: 6.00 Build 0)  -->
<!DOCTYPE svg PUBLIC "-//W3C//DTD SVG 1.1//EN" "http://www.w3.org/Graphics/SVG/1.1/DTD/svg11.dtd">
<svg version="1.1" id="Layer_1" xmlns="http://www.w3.org/2000/svg" xmlns:xlink="http://www.w3.org/1999/xlink" x="0px" y="0px"
	 width="81px" height="54px" viewBox="0 0 81 54" enable-background="new 0 0 81 54" xml:space="preserve">
<title>Bedroom</title>
<desc>Created with Sketch.</desc>
<g id="Inspection">
	<g id="NewInspectionRoomSelection" transform="translate(-897.000000, -70.000000)">
		<g id="Bedroom" transform="translate(897.000000, 24.000000)">
			<path id="Page-1" fill="#35306C" d="M0,87.207c0.004,3.035,2.461,5.492,5.5,5.5h2v3.191v-0.004c0,2.27,1.836,4.105,4.102,4.105
				c2.27,0,4.105-1.836,4.105-4.105v-3.188h49.25v3.191v-0.004c0,2.27,1.84,4.105,4.105,4.105c2.27,0,4.105-1.836,4.105-4.105
				v-3.188h2c3.035-0.008,5.496-2.465,5.5-5.5V75.863c-0.004-3.036-2.465-5.493-5.5-5.5h-2v-12.52
				c-0.004-6.348-5.152-11.492-11.5-11.5H19c-6.352,0.008-11.496,5.152-11.5,11.5v12.52h-2c-3.039,0.008-5.496,2.465-5.5,5.5V87.207
				z M12.711,95.898l-0.004-0.004c0,0.609-0.492,1.105-1.105,1.105c-0.609,0-1.102-0.496-1.102-1.105v-3.188h2.211V95.898z
				 M70.172,95.898l-0.004-0.004c0,0.609-0.496,1.105-1.105,1.105s-1.105-0.496-1.105-1.105v-3.188h2.211L70.172,95.898z
				 M10.5,57.898v-0.004c0.004-4.691,3.805-8.492,8.5-8.5h42.656c4.695,0.008,8.496,3.809,8.5,8.5v12.469H67v-2.359
				c-0.008-3.586-2.914-6.492-6.5-6.5H48.27c-3.59,0.008-6.496,2.914-6.5,6.5v2.359h-3v-2.359c-0.008-3.586-2.915-6.492-6.5-6.5
				H20.008c-3.586,0.008-6.496,2.914-6.5,6.5v2.359h-3L10.5,57.898z M64,68.003v2.359H44.77v-2.359c0-1.934,1.566-3.5,3.5-3.5H60.5
				C62.43,64.503,64,66.07,64,68.003z M35.75,68.003v2.359H16.508v-2.359c0-1.934,1.566-3.5,3.5-3.5H32.25
				C34.18,64.503,35.75,66.07,35.75,68.003z M3,75.863c0-1.379,1.117-2.5,2.5-2.5h69.656c0.664,0,1.301,0.266,1.77,0.735
				s0.73,1.105,0.73,1.766v11.344c0,0.66-0.262,1.297-0.73,1.766s-1.105,0.734-1.77,0.734H5.5c-1.383,0-2.5-1.121-2.5-2.5V75.863z"
				/>
		</g>
	</g>
</g>
</svg>
